X:1
T:Title
T:Composer: Me
T: SVC "Babylon" 
T:oh shit!
C:Composer
%%score ( 1 2 )
L:1/8
M:4/4
K:C
V:1 treble nm="Piano" snm="Pno."
V:2 treble 
V:1
 z2 z D FFGF | A4 A3{/c} d | c3 A F3 G/F/ | A3 G/F/ D3 D | A3 A G/F/ D3 | z2 z D F F2 G/F/ | %6
 ^G4- G3 c | d3 A D3 D/D/ | G>A- AA G<F- FG/F/ | G3/2{/^G}A/- AA =G/FD/- D2- | D8 | z2 z D FFGF | %12
 A8 | dc (3c/d/c/_B (3A2 A2 G2 | (3^F3/2=F/^F DD- D>D (3DDD | (3:2:2C2 C- CD FFGF | c2 dA- A4 | %17
 f3 f (3:2:4f2 e2 dc | (3:2:4d2 c2 AG A2 Ge- | e3 G d3 c/A/ | %20
{/_B} cA{/c} dc/A/ c/A/G/F/ (3F/G/D/F- | F(3F/A/c/ (3d/c/d/(3F/A/c/ (3d/c/d/ z z f- | %22
 !~(!f!~)!e' (3d/c/A/(3c/A/G/ (3A/G/F/(3G/F/D/ (3F/D/C/(3D/C/D/ | C2 z d ffgf | %24
 e2 f d2 f/g/ ag/f/ | (3efd- d2 ffgf | (3z z c (3cdA (3cdA (3cd{/^g}a |{/^g} a8 | A2 AG A_BAG | %29
 A2 AD A_BAG | A2 AA A_BAG | D8 |] %32
V:2
 x8 | x8 | x8 | x8 | x8 | x8 | x8 | x8 | x8 | x8 | x8 | x8 | x8 | x8 | x8 | x8 | x8 | x8 | x8 | %19
 x8 | x8 | x8 | x8 | x8 | x8 | x8 |{/c'} d'8- | d'8 | x8 | x8 | x8 | x8 |] %32

